cssgg/npm.svg

<svg
  width="24"
  height="24"
  viewBox="0 0 24 24"
  fill="none"
  xmlns="http://www.w3.org/2000/svg"
>
  <path
    fill-rule="evenodd"
    clip-rule="evenodd"
    d="M5 21C3.89543 21 3 20.1046 3 19V5C3 3.89543 3.89543 3 5 3H19C20.1046 3 21 3.89543 21 5V19C21 20.1046 20.1046 21 19 21H5ZM6 18V6H18V18H15V9H12V18H6Z"
    fill="currentColor"
  />
</svg>

<svg viewBox="0 0 24 24" xmlns="http://www.w3.org/2000/svg"><path fill-rule="evenodd" d="M5 21c-1.11 0-2-.9-2-2V5c0-1.11.89-2 2-2h14c1.1 0 2 .89 2 2v14c0 1.1-.9 2-2 2H5Zm1-3V6h12v12h-3V9h-3v9H6Z"/></svg>
